src/assets/outline/HeartSlash.svg

<?xml version="1.0" encoding="UTF-8"?>
<svg width="24" height="24" viewBox="0 0 24 24" xmlns="http://www.w3.org/2000/svg">
 <path d="m6.11 18.25c-0.18 0-0.37001-0.07-0.51001-0.2-1.98-1.86-4.35-4.99-4.35-9.36 0-3.5 2.83-6.34 6.31-6.34 1.69 0 3.27 0.66003 4.44 1.84 1.17-1.18 2.75-1.84 4.44-1.84 1.26 0 2.48 0.38002 3.53 1.08 0.34 0.23 0.43 0.69997 0.2 1.04s-0.7 0.43002-1.04 0.20002c-0.79-0.54-1.72-0.82996-2.68-0.82996-1.52 0-2.93 0.71-3.84 1.94-0.28 0.38-0.92 0.38-1.2 0-0.92-1.23-2.32-1.94-3.84-1.94-2.65 0-4.81 2.17-4.81 4.84 0 3.84 2.11 6.61 3.88 8.27 0.3 0.28 0.31998 0.76 0.03998 1.06-0.17 0.16-0.37 0.24-0.57 0.24z"/>
 <path d="m12 21.65c-0.31 0-0.61-0.04-0.86-0.13-0.75-0.26-1.64-0.68-2.5-1.19-0.36-0.21-0.47001-0.67-0.26001-1.03 0.21-0.35 0.66997-0.47 1.03-0.26 0.78003 0.46 1.57 0.84 2.22 1.06 0.18 0.06 0.57 0.06 0.75 0 2.3-0.79 8.88-4.58 8.88-11.42 0-0.5-0.08-0.99002-0.22-1.46-0.12-0.4 0.09-0.81994 0.49-0.93994s0.82 0.09999 0.94 0.48999c0.19 0.62 0.29 1.26 0.29 1.91 0 6.88-6.07 11.52-9.89 12.83-0.26 0.1-0.56 0.14-0.87 0.14z"/>
 <path d="m2 22.75c-0.19 0-0.38003-0.07-0.53003-0.22-0.29-0.29-0.29-0.77 0-1.06l20-20c0.29-0.29 0.7701-0.29 1.0601 0s0.29 0.77006 0 1.0601l-20 20c-0.15 0.15-0.34003 0.22-0.53003 0.22z"/>
</svg>

<svg width="24" height="24" viewBox="0 0 24 24"  xmlns="http://www.w3.org/2000/svg">
<path d="M6.10999 18.2496C5.92999 18.2496 5.73998 18.1796 5.59998 18.0496C3.61998 16.1896 1.25 13.0596 1.25 8.68964C1.25 5.18964 4.08 2.34961 7.56 2.34961C9.25 2.34961 10.83 3.00964 12 4.18964C13.17 3.00964 14.75 2.34961 16.44 2.34961C17.7 2.34961 18.92 2.72963 19.97 3.42963C20.31 3.65963 20.4 4.1296 20.17 4.4696C19.94 4.8096 19.47 4.89962 19.13 4.66962C18.34 4.12962 17.41 3.83966 16.45 3.83966C14.93 3.83966 13.52 4.54966 12.61 5.77966C12.33 6.15966 11.69 6.15966 11.41 5.77966C10.49 4.54966 9.09001 3.83966 7.57001 3.83966C4.92001 3.83966 2.76001 6.00963 2.76001 8.67963C2.76001 12.5196 4.87001 15.2896 6.64001 16.9496C6.94001 17.2296 6.95999 17.7096 6.67999 18.0096C6.50999 18.1696 6.30999 18.2496 6.10999 18.2496Z" />
<path d="M11.9999 21.6498C11.6899 21.6498 11.3899 21.6098 11.1399 21.5198C10.3899 21.2598 9.49991 20.8398 8.63991 20.3298C8.27991 20.1198 8.1699 19.6598 8.3799 19.2998C8.5899 18.9498 9.04987 18.8298 9.40987 19.0398C10.1899 19.4998 10.9799 19.8798 11.6299 20.0998C11.8099 20.1598 12.1999 20.1598 12.3799 20.0998C14.6799 19.3098 21.2599 15.5198 21.2599 8.6798C21.2599 8.1798 21.1799 7.68978 21.0399 7.21978C20.9199 6.81978 21.1299 6.39984 21.5299 6.27984C21.9299 6.15984 22.3499 6.37983 22.4699 6.76983C22.6599 7.38983 22.7599 8.0298 22.7599 8.6798C22.7599 15.5598 16.6899 20.1998 12.8699 21.5098C12.6099 21.6098 12.3099 21.6498 11.9999 21.6498Z" />
<path d="M1.99997 22.7495C1.80997 22.7495 1.61994 22.6795 1.46994 22.5295C1.17994 22.2395 1.17994 21.7595 1.46994 21.4695L21.4699 1.46945C21.7599 1.17945 22.24 1.17945 22.53 1.46945C22.82 1.75945 22.82 2.23951 22.53 2.52951L2.53 22.5295C2.38 22.6795 2.18997 22.7495 1.99997 22.7495Z" />
</svg>
